static/IND.svg

<?xml version="1.0" encoding="UTF-8"?>
<svg width="150px" height="150px" viewBox="0 0 150 150" version="1.1" xmlns="http://www.w3.org/2000/svg" xmlns:xlink="http://www.w3.org/1999/xlink">
    <!-- Generator: Sketch 44 (41411) - http://www.bohemiancoding.com/sketch -->
    <title>IND</title>
    <desc>Created with Sketch.</desc>
    <defs>
        <polygon id="path-1" points="99.9978271 0.0384544418 0.000960505048 0.0384544418 0.000960505048 92.9306063 99.9978271 92.9306063 99.9978271 0.0384544418"></polygon>
    </defs>
    <g id="Page-1" stroke="none" stroke-width="1" fill="none" fill-rule="evenodd">
        <g id="IND">
            <g id="Page-1">
                <g id="Group-3" transform="translate(25.000000, 28.059712)">
                    <mask id="mask-2" fill="white">
                        <use xlink:href="#path-1"></use>
                    </mask>
                    <g id="Clip-2"></g>
                    <path d="M92.0781761,12.99664 C85.1721448,4.65843517 75.266136,0.0567203017 64.1787061,0.0374930808 L20.4148945,0.0406976176 L0.000960505048,92.9081746 L39.5161382,92.9306063 L44.7188738,71.2358921 L61.1082916,71.2390966 L61.4860903,71.2390966 C73.9470424,71.2390966 84.2052363,66.9321991 91.1208727,58.8119029 C103.918002,44.8625541 101.657613,24.5650179 92.0781761,12.99664" id="Fill-1" fill="#FEFEFE" mask="url(#mask-2)"></path>
                </g>
                <path d="M115.846809,42.0798813 C109.267349,34.1358345 99.7935676,29.7167783 89.1767851,29.7007556 L46.7000502,29.7039601 L26.9936883,119.363696 L63.2527539,119.389332 L68.4554895,97.6914132 C73.3252501,97.6914132 86.1319841,97.6946178 86.1159757,97.6946178 C98.2663645,97.7811403 108.230004,93.666515 114.940732,85.786559 C127.12634,72.5069584 124.984413,53.1163061 115.846809,42.0798813" id="Fill-4" fill="#B3B1B1"></path>
                <path d="M66.6004341,95.3280673 L61.3976984,117.022782 L29.9251497,117.0356 L48.6005695,32.0641015 L89.1691011,32.0929423 C99.2704125,32.108965 107.924563,36.2107721 114.030173,43.5876159 C123.030106,54.4542002 123.907367,72.5181743 113.143307,84.2563926 C106.541436,92.0049627 96.8627465,95.4081808 86.1371068,95.3312719 L66.6004341,95.3280673 Z" id="Fill-6" fill="#081E3F"></path>
                <path d="M44.4185305,50.9397847 L62.2006807,50.9558074 C64.2433547,50.9558074 66.4172978,52.6702346 65.4728012,55.2691139 C64.8932965,56.8745869 64.4450608,58.7364228 64.240153,60.4828953 C64.0768672,61.848028 65.6008685,62.7100484 66.4717264,62.7100484 L102.714784,62.7356847 C103.396742,62.7356847 103.755331,62.5434125 103.755331,62.2165498 C103.755331,61.8928915 103.723314,60.6911902 103.595247,59.8483971 C103.467179,59.0440583 103.33591,58.9062632 102.685968,58.9062632 C98.168393,58.8998542 96.327425,56.887405 91.5921351,53.8302769 C86.8568452,50.7731488 79.9123937,49.0170626 73.9444557,49.0106535 L44.8507578,48.9946309 L44.4185305,50.9397847 Z" id="Fill-8" fill="#FCB424"></path>
                <path d="M66.3731146,74.4312828 C65.7455846,73.0885818 65.1660799,71.489518 64.810693,70.0186356 C64.3624574,68.1343679 62.7712207,66.6025993 60.0497897,66.6025993 L40.9741594,66.5897812 L41.4480086,64.4491506 L103.262912,64.4908095 C103.880837,64.4908095 103.749568,64.750377 103.717551,65.4329434 C103.682332,66.1155097 103.52545,67.3813018 103.426198,68.1279588 C103.326945,68.8714114 102.712222,68.6951619 102.123112,68.70798 C100.733582,68.7400254 98.1466216,69.0700927 96.6386286,70.2012942 C94.0772818,72.1272208 88.6152098,75.5112117 85.5447953,76.4950045 C82.250263,77.5460925 69.93979,81.3146278 66.3346944,74.3703966" id="Fill-10" fill="#FCB424"></path>
                <path d="M37.5563623,82.1753664 L69.8357353,82.1977982 C71.2604844,82.1977982 72.4867292,82.5374791 73.4376292,83.3289997 C76.1654636,85.5817891 79.7033238,87.2161028 83.4556969,88.3024408 C85.1397824,88.7895304 88.0373059,88.1614412 90.6274679,86.6937633 C97.0884652,83.0373868 101.24425,76.0803374 102.611369,71.6003949 C102.966756,70.430739 102.284797,70.5268751 101.381923,70.5909658 C98.6572901,70.7864426 95.794985,73.2507314 92.0330069,75.654134 C88.2646255,78.0511275 80.6061986,80.3231441 73.338377,80.3135305 L37.9693795,80.2910988 L37.5563623,82.1753664 Z" id="Fill-12" fill="#FCB424"></path>
                <path d="M84.9086208,38.9073899 C85.3632599,38.8272764 86.9961185,38.7279358 87.9053966,39.0836394 C94.0366205,41.4998601 99.838071,47.8929111 102.264947,54.6833246 C102.732393,55.9875711 102.847653,56.8239552 102.264947,56.8912505 C99.4538689,57.2020906 98.1411787,55.8145261 94.8370413,53.5713503 C91.5297023,51.3313791 88.4816996,49.7996105 84.2938976,48.4665232 C80.1669276,47.1526631 72.6493747,46.9635954 71.676063,46.9315501 C70.7059529,46.8995047 70.8276168,46.4925285 71.2534407,46.0695297 C74.8553347,42.4708348 79.6962801,39.8591373 84.9086208,38.9073899" id="Fill-14" fill="#FCB424"></path>
                <path d="M114.32793,62.1902726 C114.34714,62.44984 114.068594,62.7446574 113.742022,62.7446574 C113.713207,62.7446574 106.672705,62.7382484 106.672705,62.7382484 C105.766628,62.7382484 105.75062,62.3152495 105.718603,61.7961145 C105.683385,61.2769796 105.539309,60.2387096 105.507292,59.620234 C105.475275,59.0209857 105.257561,58.3352148 106.057981,57.9987384 C108.027017,57.1655588 109.887195,55.2396322 110.735641,53.5860912 C111.020591,53.0285018 111.446415,52.1055952 111.929869,52.8875022 C113.604349,55.566495 114.129426,58.8703724 114.32793,62.1902726" id="Fill-16" fill="#FCB424"></path>
                <path d="M111.796999,74.9061951 C111.675335,75.1465354 111.223898,75.3227849 111.07662,74.9350359 C110.045678,72.1727252 107.593189,70.2724349 105.905902,69.330301 C105.396834,69.0450973 105.35201,68.7118254 105.416044,68.2087132 C105.486481,67.7056009 105.697792,66.0969234 105.729809,65.4175616 C105.755422,64.8791994 105.973137,64.4914505 106.376549,64.4914505 L113.743623,64.494655 C114.006161,64.4978595 114.332732,64.7317907 114.332732,64.9272675 C114.332732,68.4426443 113.26337,71.9163623 111.796999,74.9061951" id="Fill-18" fill="#FCB424"></path>
                <path d="M92.6368444,88.7449874 C92.1181717,88.8186917 90.9847758,88.6392376 92.7713152,87.6041722 C98.12453,84.4893625 102.895038,77.179814 104.169308,72.9818708 C104.652763,71.3796023 104.70399,71.2962844 105.318713,71.4725339 C106.138344,71.7064651 107.428622,72.8216439 108.414741,74.1867766 C109.407263,75.5487047 109.833086,78.2052658 109.263187,78.9679455 C105.414763,84.1368634 99.2995478,87.7676036 92.6368444,88.7449874" id="Fill-20" fill="#FCB424"></path>
                <path d="M106.256806,55.6603879 C105.011351,56.3301361 104.768023,56.2051592 104.502283,55.2694344 C102.177861,47.1010701 95.3166535,41.0541091 92.5119788,39.2659775 C91.9772976,38.9295012 92.11497,38.7019791 92.5023737,38.7532516 C99.216304,39.6473174 105.795764,43.3133075 109.109506,48.3316122 C110.998499,51.2092863 107.457437,55.0098669 106.256806,55.6603879" id="Fill-22" fill="#FCB424"></path>
                <rect id="Rectangle" x="0" y="0" width="150" height="150"></rect>
            </g>
        </g>
    </g>
</svg>

<svg xmlns="http://www.w3.org/2000/svg" xmlns:xlink="http://www.w3.org/1999/xlink" width="150" height="150"><defs><path id="A" d="M99.998.038H.001V92.93h99.997V.038z"/></defs><g fill="none" fill-rule="evenodd"><g transform="translate(25 28.06)"><mask id="B" fill="#fff"><use xlink:href="#A"/></mask><path d="M92.078 12.997C85.172 4.658 75.266.057 64.18.037L20.415.04.001 92.908l39.515.022 5.203-21.695 16.767.003c12.46 0 22.72-4.307 29.635-12.427 12.797-13.95 10.537-34.247.957-45.815" fill="#fefefe" mask="url(#B)"/></g><path d="M115.847 42.08c-6.58-7.944-16.053-12.363-26.67-12.38l-42.477.003-19.706 89.66 36.26.026 5.203-21.698 17.66.003c12.15.087 22.114-4.028 28.825-11.908 12.186-13.28 10.044-32.67.906-43.707" fill="#b3b1b1"/><path d="M66.6 95.328l-5.203 21.695-31.473.013L48.6 32.064l40.57.03c10.1.016 18.755 4.118 24.86 11.495 9 10.867 9.877 28.93-.887 40.67-6.602 7.75-16.28 11.152-27.006 11.075L66.6 95.328z" fill="#081e3f"/><path d="M44.42 50.94l17.782.016c2.043 0 4.217 1.714 3.272 4.313a24.14 24.14 0 0 0-1.233 5.214c-.163 1.365 1.36 2.227 2.232 2.227l36.243.026c.682 0 1.04-.192 1.04-.52s-.032-1.525-.16-2.368c-.128-.804-.26-.942-.9-.942-4.518-.006-6.36-2.02-11.094-5.076S79.912 49.017 73.944 49l-29.094-.016-.432 1.945zm21.953 23.5a24.46 24.46 0 0 1-1.562-4.413c-.448-1.884-2.04-3.416-4.76-3.416H40.974l.474-2.14 61.815.042c.618 0 .487.26.455.942s-.192 1.948-.3 2.695-.714.567-1.303.58c-1.4.032-3.976.362-5.484 1.493-2.56 1.926-8.023 5.3-11.094 6.294-3.295 1.05-15.605 4.82-19.2-2.125m-28.79 7.794l32.28.022c1.425 0 2.65.34 3.602 1.13 2.728 2.253 6.266 3.887 10.018 4.973 1.684.487 4.582-.14 7.172-1.6 6.46-3.656 10.617-10.613 11.984-15.093.355-1.17-.327-1.074-1.23-1-2.725.195-5.587 2.66-9.35 5.063-3.768 2.397-11.427 4.67-18.695 4.66l-35.37-.022-.413 1.884zM84.9 38.907c.455-.08 2.087-.18 2.997.176 6.13 2.416 11.933 8.8 14.36 15.6.467 1.304.583 2.14 0 2.208-2.8.3-4.124-1.077-7.428-3.32s-6.355-3.772-10.543-5.105c-4.127-1.314-11.645-1.503-12.618-1.535s-.848-.44-.423-.862a26.21 26.21 0 0 1 13.655-7.162M114.328 62.2c.02.26-.26.554-.586.554-.03 0-7.07-.006-7.07-.006-.906 0-.922-.423-.954-.942l-.2-2.176c-.032-.6-.25-1.285.55-1.62 1.97-.833 3.83-2.76 4.678-4.413.285-.558.7-1.48 1.194-.7 1.674 2.68 2.2 5.983 2.398 9.303m-2.53 12.706c-.122.24-.573.417-.72.03-1.03-2.762-3.483-4.663-5.17-5.605-.5-.285-.554-.618-.5-1.122l.314-2.8c.026-.538.243-.926.647-.926l7.367.003c.263.003.6.237.6.433 0 3.515-1.07 7-2.536 9.98M92.637 88.745c-.52.074-1.652-.106.134-1.14 5.353-3.115 10.124-10.424 11.398-14.622.483-1.602.535-1.686 1.15-1.5.82.234 2.1 1.35 3.096 2.714s1.418 4.018.848 4.78c-3.848 5.17-9.964 8.8-16.626 9.777m13.62-33.084c-1.245.67-1.5.545-1.755-.4-2.324-8.168-9.186-14.215-12-16.003-.535-.336-.397-.564-.01-.513 6.714.894 13.293 4.56 16.607 9.578 1.9 2.878-1.652 6.678-2.853 7.33" fill="#fcb424"/></g></svg>
